storage/app/icons/phosphoricons/bold/first-aid-bold.svg

<svg xmlns="http://www.w3.org/2000/svg" fill="currentColor" viewBox="0 0 256 256"><path d="M216 84h-44V40a20 20 0 0 0-20-20h-48a20 20 0 0 0-20 20v44H40a20 20 0 0 0-20 20v48a20 20 0 0 0 20 20h44v44a20 20 0 0 0 20 20h48a20 20 0 0 0 20-20v-44h44a20 20 0 0 0 20-20v-48a20 20 0 0 0-20-20m-4 64h-52a12 12 0 0 0-12 12v52h-40v-52a12 12 0 0 0-12-12H44v-40h52a12 12 0 0 0 12-12V44h40v52a12 12 0 0 0 12 12h52Z"/></svg>

<svg xmlns="http://www.w3.org/2000/svg" viewBox="0 0 256 256" fill="currentColor"><path d="M216,84H172V40a20,20,0,0,0-20-20H104A20,20,0,0,0,84,40V84H40a20,20,0,0,0-20,20v48a20,20,0,0,0,20,20H84v44a20,20,0,0,0,20,20h48a20,20,0,0,0,20-20V172h44a20,20,0,0,0,20-20V104A20,20,0,0,0,216,84Zm-4,64H160a12,12,0,0,0-12,12v52H108V160a12,12,0,0,0-12-12H44V108H96a12,12,0,0,0,12-12V44h40V96a12,12,0,0,0,12,12h52Z"/></svg>
